X: 9
T: The Eel In The Sink
R: reel
M: 4/4
L: 1/8
K: Emaj
|c2FG ABcA|B2 GEBE (3GAB|cFFG ABcd|ecBG cF F2|
c2FG ABcA|B2 GEBE (3GAB|cFFG ABcd|ecBG cF F2||
|f2cf fecB|(3GAB cd e3e|f2cf fefg|ecBG cF F2|
f2cf fecB|(3GAB cd e3e|fdec dBcd|(3edc BG GF F2||


Tune 1446	Setting 14830

